X: 032
M: 6/8
L: 1/8
K: G
geg fdB | cec dBG | BdB cAc | BGG G2 :|
|: c |\
geg fdB | cec dBG | BdB cAc | BGG G2 :|

